X: 18354
T: Humours Of Whiskey, The
R: slip jig
M: 9/8
K: Gmajor
|:B2A Bee Bee|B2A Bee Bcd|B2A Bee Bee|FAA ABG FED:|
P: First Setting
|:~G3 BGB AFA|~G3 BGB AFD|~G3 BGB ABc|dcB ABG FED:|
P: Second Setting
|:~G3 BGB d3|~G3 BGB AFD|~G3 BGB dBd|eAA ABG FED:|

